16x16/apps/ocsstore.svg

<svg xmlns="http://www.w3.org/2000/svg" width="16" height="16" version="1.1">
 <path style="fill:#144379" d="M 8,0 A 8,8 0 0 0 0,8 8,8 0 0 0 8,16 8,8 0 0 0 16,8 8,8 0 0 0 8,0 Z"/>
 <path style="fill:#00cea5" d="M 8,1.9999998 A 6.0000002,6.0000002 0 0 0 4.0767298,3.4707032 l 1.5611049,1.5611049 c 0.070375,-0.018571 0.1429388,-0.031808 0.2193081,-0.031808 l 4.2857142,0 c 0.07637,0 0.148933,0.013239 0.219309,0.031809 L 11.925781,3.4681922 A 6.0000002,6.0000002 0 0 0 8,1.9999998 Z"/>
 <path style="fill:#d152ac" d="M 3.4681917,4.0742188 C 2.522782,5.1637704 2.0015598,6.5574607 1.9999998,8 c 0.00287,1.4419972 0.5249503,2.834732 1.4707034,3.92327 l 1.5292967,-1.529297 0,-0.251116 0,-4.2857142 c 0,-0.076369 0.013239,-0.1489329 0.031809,-0.2193081 z"/>
 <path style="fill:#d75950" d="M 12.529297,4.0767298 10.968192,5.6378347 C 10.986763,5.7082099 11,5.7807735 11,5.8571428 l 0,4.2857142 c 0,0.07637 -0.01324,0.148933 -0.03181,0.219309 l 1.563616,1.563615 A 6.0000002,6.0000002 0 0 0 14,8 6.0000002,6.0000002 0 0 0 12.529297,4.0767298 Z"/>
 <path style="fill:#e88a19" d="M 10.362166,10.968192 C 10.29179,10.986763 10.219226,11 10.142857,11 l -2.9999999,0 -2.1428572,2.142857 0,-1.53683 -0.9257811,0.925782 A 6.0000002,6.0000002 0 0 0 8,14 6.0000002,6.0000002 0 0 0 11.92327,12.529297 l -1.561104,-1.561105 z"/>
</svg>

<svg xmlns="http://www.w3.org/2000/svg" width="16" height="16"><path style="fill:#144379" d="M8 0a8 8 0 0 0-8 8 8 8 0 0 0 8 8 8 8 0 0 0 8-8 8 8 0 0 0-8-8z"/><path style="fill:#00cea5" d="M8 2a6 6 0 0 0-3.923 1.47l1.56 1.562A.854.854 0 0 1 5.858 5h4.286c.076 0 .149.013.22.032l1.563-1.564A6 6 0 0 0 8 2z"/><path style="fill:#d152ac" d="M3.468 4.074A6 6 0 0 0 2 8a6 6 0 0 0 1.47 3.923L5 10.394V5.857c0-.076.013-.149.032-.22z"/><path style="fill:#d75950" d="m12.53 4.077-1.562 1.56c.019.071.032.144.032.22v4.286a.854.854 0 0 1-.032.22l1.564 1.563A6 6 0 0 0 14 8a6 6 0 0 0-1.47-3.923z"/><path style="fill:#e88a19" d="M10.362 10.968a.854.854 0 0 1-.22.032h-3L5 13.143v-1.537l-.926.926A6 6 0 0 0 8 14a6 6 0 0 0 3.923-1.47l-1.56-1.562z"/></svg>
